X:1
T:Ya no eres pan y vino - Intro
T:Ya no eres pan y vino - Intermedio
T:Misa - Comunión
T:Cristeros SJB
C:Cristeros SJB
%%score 1 2 3 { 4 | 5 }
L:1/8
Q:1/4=75
M:4/4
K:D
V:1 tab stafflines=6 strings=E2,A2,D3,G3,B3,E4 nm="Classical Guitar" snm="Guit."
V:2 treble transpose=-14 nm="Tenor Saxophone" snm="T. Sax."
V:3 treble transpose=-9 nm="Altsaxophon" snm="A.sax."
V:4 treble nm="Piano" snm="Pno."
V:5 bass 
V:1
"D" [!4!D,!3!A,!2!D!1!F]>[!4!D,!3!A,!2!D!1!F] [!4!D,!3!A,!2!D!1!F][!4!D,!3!A,!2!D!1!F]"G" [!6!G,,!5!D,!4!G,!3!^A,!2!D!1!G]>[!6!G,,!5!D,!4!G,!3!A,!2!D!1!G] [!6!G,,!5!D,!4!G,!3!A,!2!D!1!G][!6!G,,!5!D,!4!G,!3!A,!2!D!1!G] | %1
"D" [!4!D,!3!A,!2!D!1!F]>[!4!D,!3!A,!2!D!1!F] [!4!D,!3!A,!2!D!1!F][!4!D,!3!A,!2!D!1!F] [!4!D,!3!A,!2!D!1!F]>[!4!D,!3!A,!2!D!1!F] [!4!D,!3!A,!2!D!1!F][!4!D,!3!A,!2!D!1!F] | %2
"Am" [!5!A,,!4!E,!3!A,!2!=C!1!E]>[!5!A,,!4!E,!3!A,!2!C!1!E] [!5!A,,!4!E,!3!A,!2!C!1!E][!5!A,,!4!E,!3!A,!2!C!1!E] [!5!A,,!4!E,!3!A,!2!C!1!E]>[!5!A,,!4!E,!3!A,!2!C!1!E] [!5!A,,!4!E,!3!A,!2!C!1!E][!5!A,,!4!E,!3!A,!2!C!1!E] | %3
"G" [!6!G,,!5!D,!4!G,!3!B,!2!D!1!G]>[!6!G,,!5!D,!4!G,!3!B,!2!D!1!G] [!6!G,,!5!D,!4!G,!3!B,!2!D!1!G][!6!G,,!5!D,!4!G,!3!B,!2!D!1!G]"Gm" [!6!G,,!5!D,!4!G,!3!^A,!2!D!1!G]>[!6!G,,!5!D,!4!G,!3!A,!2!D!1!G] [!6!G,,!5!D,!4!G,!3!A,!2!D!1!G][!6!G,,!5!D,!4!G,!3!A,!2!D!1!G] | %4
"D" [!4!D,!3!A,!2!D!1!F]>[!4!D,!3!A,!2!D!1!F] [!4!D,!3!A,!2!D!1!F][!4!D,!3!A,!2!D!1!F]"E" [!6!E,,!5!B,,!4!E,!3!_A,!2!B,!1!E]>[!6!E,,!5!B,,!4!E,!3!A,!2!B,!1!E] [!6!E,,!5!B,,!4!E,!3!A,!2!B,!1!E][!6!E,,!5!B,,!4!E,!3!A,!2!B,!1!E] | %5
"G" [!6!G,,!5!D,!4!G,!3!B,!2!D!1!G]>[!6!G,,!5!D,!4!G,!3!B,!2!D!1!G] [!6!G,,!5!D,!4!G,!3!B,!2!D!1!G][!6!G,,!5!D,!4!G,!3!B,!2!D!1!G]"Gm" [!6!G,,!5!D,!4!G,!3!^A,!2!D!1!G]>[!6!G,,!5!D,!4!G,!3!A,!2!D!1!G] [!6!G,,!5!D,!4!G,!3!A,!2!D!1!G][!6!G,,!5!D,!4!G,!3!A,!2!D!1!G] | %6
"D" [!4!D,!3!A,!2!D!1!F]>[!4!D,!3!A,!2!D!1!F] [!4!D,!3!A,!2!D!1!F][!4!D,!3!A,!2!D!1!F]"A+" [!5!A,,!4!E,!3!A,!2!C!1!=F]>[!5!A,,!4!E,!3!A,!2!C!1!F] [!5!A,,!4!E,!3!A,!2!C!1!F][!5!A,,!4!E,!3!A,!2!C!1!F] |] %7
V:2
[K:E] g2 fe a2 ba- | a g4 z a2 | b3 a/g/ fefg | a3 e =cBAB | e3 B ^A2 c2 | A3 G A2 G2 | %6
"_dim." E8 |] %7
V:3
[K:B] d2 cB e2 fe- | e d4 z e2 | f3 e/d/ cBcd | e3 b =gfef | b3 f ^e2 g2 | e3 d e2 d2 | %6
"_dim." B8 |] %7
V:4
 afed _bgde | gfed gfga | afed =cBde | gdBd _BAGA | dAGA eB^GB | GFED GFDE | D4 ^E4 |] %7
V:5
 [F,A,D]2 [F,A,D]2 [G,_B,D]2 [G,B,D]2 | [F,A,D]2 [F,A,D]2 [F,A,D]2 [F,A,D]2 | %2
 [E,A,=C]2 [E,A,C]2 [E,A,C]2 [E,A,C]2 | [G,B,D]2 [G,B,D]2 [G,_B,D]2 [G,B,D]2 | %4
 [F,A,D]2 [F,A,D]2 [^G,B,E]2 [G,B,E]2 | [G,B,D]2 [G,B,D]2 [G,_B,D]2 [G,B,D]2 | %6
 [F,A,D]2 [F,A,D]2 [A,C^E]2 [A,CE]2 |] %7

